X: 42516
T: Wheels Of The World, The
R: jig
M: 6/8
K: Gmajor
AG|:FDD ADD|BDD c2A|Bcd ecA|ABG FED|
GFG AGA|BAB c2A|Bcd ecA|1 AGF GAG:|2 AGF G2D||
GBd gdB|dBG BcA|Bcd ecA|ABG FED|
GBd gdB|dBG BcA|Bcd ecA|AGF G3||
dfa gdB|dBG BcA|Bcd ecA|ABG FED|
GFG AGA|BAB c2A|Bcd ecA|AGF G3||

